X:26
M:6/8
L:1/8
K:D
d2d afd | dfa baf | e2A ABc | dfe d2 :| 
d | g2g bag | f2d def | eAA ABA | ABc def | 
g2g bag | afd dfa | e2A ABc | dfe d2 :|| 

